static/assets/img/icons/theme/devices/sd-card.svg

<svg height="24" viewBox="0 0 24 24" width="24" xmlns="http://www.w3.org/2000/svg"><g fill="none" fill-rule="evenodd"><path d="m0 0h24v24h-24z" opacity="0"/><path d="m5 5c0-.55228475.44771525-1 1-1h9.75c.1573787 0 .3055728.07409708.4.2l2.75 3.66666667c.0649111.08654808.1.19181489.1.3v10.83333333c0 .5522847-.4477153 1-1 1h-12c-.55228475 0-1-.4477153-1-1zm2 1v3h2v-3zm3 0v3h2v-3zm3 0v3h2v-3z" fill="#000"/></g></svg>

<svg width="24px" height="24px" viewBox="0 0 24 24" version="1.1" xmlns="http://www.w3.org/2000/svg" xmlns:xlink="http://www.w3.org/1999/xlink">
    <title>Icon For SD-card</title>
    <g stroke="none" stroke-width="1" fill="none" fill-rule="evenodd">
        <rect opacity="0" x="0" y="0" width="24" height="24"></rect>
        <path d="M5,5 C5,4.44771525 5.44771525,4 6,4 L15.75,4 C15.9073787,4 16.0555728,4.07409708 16.15,4.2 L18.9,7.86666667 C18.9649111,7.95321475 19,8.05848156 19,8.16666667 L19,19 C19,19.5522847 18.5522847,20 18,20 L6,20 C5.44771525,20 5,19.5522847 5,19 L5,5 Z M7,6 L7,9 L9,9 L9,6 L7,6 Z M10,6 L10,9 L12,9 L12,6 L10,6 Z M13,6 L13,9 L15,9 L15,6 L13,6 Z" fill="#000000"></path>
    </g>
</svg>
